X:16
M:6/8
L:1/8
K:G
| AGE EGB | BeB dBA | GEE dEE | gfe dBA | 
| gab g2e | age dBd | gab g2e | age a3 | 
bgg age | ege dBd | GAB d2e | dBG A3 :|| 

